X: 1
T:Bayrisch Polka - schottisch/schottische/scottish
C:Rudolf Heidinger, Pstlingberg. Quelle:OVLA MII L9
Z:abc transcription Simon Wascher
N:please mail errors to: simon.wascher@chello.at
M:2/4
L:1/16
K:G
Bc|d2e2 d3g|f2e2e4|a2a2 fed2|b2g2 g2Bc|
d2e2 d3g|f2e2e4|a2f2 d2ef|g2g2g2:|
|:Bc|d2ed c2B2|B2A2A4|ABc2 ABc2|B2e2 d2Bc|
d2ed c2B2|B2A2A4|ABc2 dcA2|G2GGG2:|
K:C
|:G2|e2e2 efga|g2f2d4|g2fe d2ef|a2g^f g2G2|
e2e2 efga|g2f2d4|g2fe f2ed|c2c2c2:|
